X: 4304
T: Johnny's friends are ne'er pleased.   a Reel.
%R: reel
B: Niel Gow & Sons "Complete Repository" v.4 p.30 #4 (and top 2 staves of p.31)
Z: 2021 John Chambers <jc:trillian.mit.edu>
M: C|
L: 1/8
K: G
% - - - - - - - - - -
% Voice 1 formatted for compactness and proofreading.
V: 1 staves=2
F |\
G3g BGB2- | BETB>A | GEEF | G3g B<GB2 | AEA>G FDDF || ~G3g BGB2- | BETB>A | GEEF |
~GFGA GAB^c | dABG FDD |] g | (e/f/g) dg BGB2- | BETB>A GEEg | (e/f/g) dg B<GB2 |
AEAG FDDg || (e/f/g) dg BGB2- | BETB>A GEEg | egdg cgBg | Ad AG FDD |]
% - - - - - - - - - -
% Voice 2 preserves the book's staff layout.
V: 2 clef=bass middle=d
z |\
[b2g2d2][b2g2d2] [b2g2d2][b2g2d2] | [b2g2e2][b2f2^d2] [b2g2e2][c'2c2] |\
[b2B2][g2G2] [g2G2][g2G2] | [c2C2][^c2^C2] [d2D2][d2D2] ||\
[b2g2d2][b2g2d2] [b2g2d2][b2g2d2] | [b2g2e2][b2f2^d2] [b2g2e2][c'2c2] |\
[b2B2][a2A2] [g2G2][e2E2] | [f2F2][g2G2] [d2D2][dD] |] z |\
[e'2c'2g2][d'2b2g2] [d'2b2g2][d'2b2g2] | [b2g2e2][b2f2^d2] [b2g2e2][b2g2e2] |\
[e'2c'2g2][d'2b2g2] [d'2b2g2][d'2b2g2]
[a2e2c2][a2e2^c2] [a2f2d2][a2f2d2] ||\
[e'2c'2g2][d'2b2g2] [d'2b2g2][d'2b2g2] | [b2g2e2][b2f2^d2] [b2g2e2][b2g2e2] |\
[c'2c2][b2B2][a2A2][g2G2] | [f2F2][^c2^C2] [d2D2][dD] |]


